svgs/sharp-solid/gifts.svg

<svg xmlns="http://www.w3.org/2000/svg" viewBox="0 0 640 512"><!--! Font Awesome Pro 6.6.0 by @fontawesome - https://fontawesome.com License - https://fontawesome.com/license (Commercial License) Copyright 2024 Fonticons, Inc. --><path d="M200.6 40l8-22.6-45.2-16-8 22.6L144.7 54.2l-9.9-29.8L127.2 1.6 81.6 16.8l7.6 22.8 8.3 25-27.4-20L50.7 30.5 22.5 69.3 41.9 83.4 59.2 96 0 96 0 512l192 0 0-320 48.3 0c2.6-33.5 21-62.5 47.7-79.6L288 96l-59.2 0 17.3-12.6 19.4-14.1L237.3 30.5 217.9 44.6 192.5 63.1 200.6 40zM363.5 185.5L393.1 224 344 224c-13.3 0-24-10.7-24-24c0-13.1 10.8-24 24.2-24c7.6 0 14.7 3.5 19.3 9.5zM272 200c0 8.4 1.4 16.5 4.1 24L224 224l0 128 192 0 0-96 32 0 0 96 192 0 0-128-52.1 0c2.7-7.5 4.1-15.6 4.1-24c0-39.9-32.5-72-72.2-72c-22.4 0-43.6 10.4-57.3 28.2L432 195.8l-30.5-39.6c-13.7-17.8-35-28.2-57.3-28.2c-39.7 0-72.2 32.1-72.2 72zM224 512l192 0 0-128-192 0 0 128zm224 0l192 0 0-128-192 0 0 128zm96-312c0 13.3-10.7 24-24 24l-49.1 0 29.6-38.5c4.6-5.9 11.7-9.5 19.3-9.5c13.4 0 24.2 10.9 24.2 24z"/></svg>

<svg xmlns="http://www.w3.org/2000/svg" viewBox="0 0 640 512"><!--! Font Awesome Pro 6.4.2 by @fontawesome - https://fontawesome.com License - https://fontawesome.com/license (Commercial License) Copyright 2023 Fonticons, Inc. --><path d="M200.6 40l8-22.6-45.2-16-8 22.6L144.7 54.2l-9.9-29.8L127.2 1.6 81.6 16.8l7.6 22.8 8.3 25-27.4-20L50.7 30.5 22.5 69.3 41.9 83.4 59.2 96H0V512H192V192h48.3c2.6-33.5 21-62.5 47.7-79.6V96H228.8l17.3-12.6 19.4-14.1L237.3 30.5 217.9 44.6 192.5 63.1 200.6 40zM363.5 185.5L393.1 224H344c-13.3 0-24-10.7-24-24c0-13.1 10.8-24 24.2-24c7.6 0 14.7 3.5 19.3 9.5zM272 200c0 8.4 1.4 16.5 4.1 24H224V352H416V256h32v96H640V224H587.9c2.7-7.5 4.1-15.6 4.1-24c0-39.9-32.5-72-72.2-72c-22.4 0-43.6 10.4-57.3 28.2L432 195.8l-30.5-39.6c-13.7-17.8-35-28.2-57.3-28.2c-39.7 0-72.2 32.1-72.2 72zM224 512H416V384H224V512zm224 0H640V384H448V512zm96-312c0 13.3-10.7 24-24 24H470.9l29.6-38.5c4.6-5.9 11.7-9.5 19.3-9.5c13.4 0 24.2 10.9 24.2 24z"/></svg>
